X:0462
T:Mary & Donald.
T:A Strathspey.
M:C|
L:1/8
Q:1/4=120
I: :: ||
Z:Jack Campin * www.campin.me.uk * 2009
K:C
e|c/c/c c>A  G>Ac>E  |G>B (cd/e/) f<(de>d) |\
  c/c/c c>A (G>Ac>).E|G>Ac>d      e<d   d ::
e|d>eg>a     g<ee>c  |d>eg>a      e/e/e d>c|\
  d>eg>a     g>ed>e  |c>ed>f      e<d   d |]

